X: 200
T:Tinkerman's Wife, The
M:4/4
L:1/8
Z:Rachel Marsh
K:DMix
A3 B AGFG | DccB cedB | A2 BG AGFG | DG ~G2 DG ~G2 | A3 B AGFG |
Adde ~f3 g | afge fae^c | dcAF G2 FG :||
Addc AGFG | Adde fded | Addc AGFG | DG ~G2 DG ~G2 | Addc AGFG |
Adde ~f3 g | afge fae^c | dcAF G2 FG :||
~A3 g fd=fe | dcAB cedc | ~A3 g fd=fe | dcAF G2 FG | ~A3 g fd=fe |
dcAB cdeg | fde^c d2 ^cA |  dBcA G2 FG :||
<end>
<start>
